X:1
T:Caro Mio Ben
T:Caro Mio Ben
T:(Come once again)
T:Attrib. to Giuseppe Giordani 1748–1798
T:by Mutopia-2009/08/05-22 - public domain
T:by Mutopia-2009/08/05-22 - public domain
C:Attrib. to Giuseppe Giordani
C:1748–1798
Z:by Mutopia-2009/08/05-22 - public domain
%%score 1 { ( 2 3 ) | ( 4 5 ) }
L:1/8
Q:1/4=80
M:4/4
K:D
V:1 treble nm="Voce"
V:2 treble nm="Piano"
V:3 treble 
V:4 bass 
V:5 bass 
V:1
"^Larghetto." z4 | z8 | z8 | z8 | z4 d2 c3/2 B/ | A4 B2 A3/2 G/ | F4 G2 F E | A4 (D2{ED)} C D | %8
w: ||||Ca\- ro mio|ben cre\- di\- mial|men sen\- za di|te lan\- gui\- sceil|
w: ||||Come once a\-|gain, joy of my|hearth, I can\- not|live if we must|
 (F2 E2) z4 | z4 B2 A3/2 G/ | F4 G2 FE | (Ad) (DG) (F2 E3/2) D/ | D4 z4 | z8 | z4 A2 B c | %15
w: cor. *|Ca\- ro mio|ben sen\- za di|te * lan\- * gui\- sce il|cor.||Il tuo fe\-|
w: part *|Come once a\-|gain, I can\- not|live _ if _ we must *|part||I am thine|
!<(! B4 B2 c d!<)! | c4!f! !>!e2 d c | (B^G) (Ad) c2 (B>A) | A4 B2 A3/2 G/ | F2 z2 A2 G F | %20
w: del so\- spir ao\-|gnor ces\- sa cru\-|del * tan\- * to ri\- *|gor Ces\- sa cru\-|del tan\- to ri\-|
w: own, All love for|you, To thee a\-|lone * faith\- * ful and *|true, To thee a\-|lone faith\- ful and|
 (F2 E2) d2 ^G G |!<(! (!fermata!A4!<)! d2) c3/2 B/ |!<(! A4 B2 A3/2!<)! G/ | F4 G2 F E | %24
w: gor, * tan\- to ri\-|gor. Car\- ro mio|ben cre\- di\- mial\-|men sen\- za di|
w: true, _ faith\- ful and|true. Come once a\-|gain, joy of my|hearth, I can\- not|
 (Ad) (DG) (F2 E3/2) D/ | D4!p!{GA} B2 A3/2 G/ | F2 z2!<(!{GA} B2 A3/2!<)! G/ | F2 z2 d2 c B | %28
w: te * lan\- * gui\- * sceil|cor. Ca\- ro mio|ben cre\- di\- mial\-|men sen\- za di|
w: live _ if _ we must *|part come once a\-|gain joy of my|hearth I can\- not|
 (A4{!fermata!B!fermata!A!fermata!^G!fermata!A} !fermata!d2) z2 | F4 E3 D | D4 z4 | z8 | %32
w: te *|lan\- gui\- sceil|cor.||
w: live _|if we must|part.||
 !fermata!z8 || %33
w: |
w: |
V:2
 (d2 c>B | [DA]4) ([DGB]2 [FA]>[EG] | F4) [B,EG]2 F>E | ((Ad)) (DG) F2 E>D | [A,D]4 ([DF]2 [CG]2 | %5
 [DA]4) ([DGB]2 [FA]>[EG] | [DF]4) ([B,G]2 FE | [A,DA]4) [^G,D]4 | (D2 C2)!f! ([Fd]2 c>B) | %9
!mf! A4 [DB]2 A>G | [DF]4 ([B,EG]2 FE | [DA]2) DG [A,DF]2 [G,CE]2 | [F,D]Adf ([Ada]2 g>f | %13
 [ce][EAc][DAd][DG] [A,DF]2 [G,CE]2 | [F,D]4)!p! [A,EA]2 [CEA]2 | (A2 ^G2) [B,EB]2 [B,GB]2 | %16
!<(! [CA]3 z [A,EA]2 [DE^G][CEA]!<)! | [B,E^G]2 [A,EA][DA] [CEA]2 [DEG]2 | %18
 [CEA]4!pp! [B,E=G]2 [A,E]2 | ([A,F]3 [EG] [DA]2 [EG][DF] | [DF]2) [CE]2!mf! [DE^G]2 [DEG]2 | %21
 !fermata![CEA]4!pp! [DF]2 [CG]2 | A4!p! (B2 [FA]>[EG] | [B,E]4)!mf! ([B,EG]2 [A,DF]>[A,CE] | %24
 [A,D]3) [B,EG] [A,DF]2 [G,A,C]2 | [F,B,D]4 [B,EG]2 [EA]2 | [A,F]4 [B,GB]2 [FA]>[EG] | %27
 [DF]4 [DFd]2 [Fc][GB] | [A,DA]2 z2 !fermata!z2!f! [B,EG]2 | [A,DF]4 [G,A,CE]4 | %30
 [F,A,D]4 ([DFd]2 [Fc][GB] | [DA]d!<(!D[B,EG] [A,DF]2 [G,CE]2!<)! | !fermata![F,D]4) z4 || %33
V:3
 F2 G2 | x6 C2 | D4 x2 [A,C]2 | D2 B,2 D2 DC | x8 | x6 C2 | x6 C2 | x8 | A,2- A,2 x2 G2 | x6 C2 | %10
 x6 C2 | x2 B,2 x4 | x6 [Bd]2 | x8 | x8 | [B,E]4 x4 | x8 | x8 | x8 | x8 | x8 | x8 | %22
 (D2 C2) B,2 C2 | (F2 D2) x4 | x8 | x8 | (E2 D2) x2 C2 | (C2 B,2) x2 D2 | x8 | x8 | x6 D2 | x8 | %32
 x8 || %33
V:4
 [D,A,]2 [E,A,]2 | [F,A,]4 G,2 A,2 | B,4 [E,,E,]2 [A,,A,][G,,G,] | %3
"^largamente" [F,,F,]2 [G,,G,]2 [A,,A,]2 [A,,G,]2 | [D,F,]4 [D,A,]2 [E,A,]2 | %5
 [F,A,]4 [G,,G,]2 [A,,A,]2 | [B,,B,]4 (E,2 A,G, | F,4) [B,,E,]4 | (F,2 E,2) [D,A,]2 [E,C]2 | %9
 [F,D]4 [G,,G,]2 [A,,A,]2 | [B,,B,]4 E,2 A,G, | F,2 [G,,,G,,]2 [A,,,A,,]4 | %12
 [D,,D,]4 [F,,F,]2 [G,,G,]2 | [A,,A,][G,,G,][F,,F,][B,,B,] [A,,A,]2 [A,,,A,,]2 | %14
 [D,,A,,]4 C,2 A,,2 | E,4 ^G,2 E,2 | A,4 C,2 B,,A,, | (E,D,C,F,) E,2 E,,2 | A,,4 E,2 C,2 | %19
 D,2 z2 [F,A,]2 [G,B,]2 | A,4 B,,2 [E,,E,]2 | !fermata![A,,A,]4 [D,A,]2 [E,A,]2 | %22
 [F,A,]4 (G,,2 A,,>^A,, | B,,4) (E,2 F,>G, | F,3) [E,,E,] A,,2 A,,2 | B,,4 [E,,E,]2 [C,,C,]2 | %26
 [D,,D,]4 [G,,,G,,]2 [A,,,A,,]2 | [B,,,B,,]4 [B,,B,]2 [A,,A,][G,,G,] | %28
 [F,,F,]2 z2 !fermata!z2 G,,2 | A,,4- A,,4 | [D,,D,]4 B,2 A,G, | F,3 [G,,G,] [A,,A,]2 [A,,,A,,]2 | %32
 !fermata![D,,A,,]4 z4 || %33
V:5
 x4 | x8 | x8 | x8 | x8 | x8 | x8 | x8 | A,,4 x4 | x8 | x8 | x8 | x8 | x8 | x8 | x8 | x8 | x8 | %18
 x8 | x8 | x8 | x8 | x8 | x8 | x8 | x8 | x8 | x8 | x8 | x4 A,,,4 | x8 | x8 | x8 || %33

